**kern	**silbe	**harmony	**phrase	**leadinstrument	**rhyme	**timestamp	**harte
*ICvox	*	*M4/4	*	*	*	*	*M4/4
*VRlead	*	*	*	*	*	*	*
*Hstimme	*	*	*	*	*	*	*
*e:	*	*e:	*e:	*e:	*	*e:	*e:
*M4/4	*	*	*	*	*	*	*
*clefF4	*	*	*	*	*	*	*
r;	.	1r;	.	r	.	0	N.C.
r;	.	1r;	.	r	.	0.37	N.C.
=1	=1	=1	=1	=1	=1	=1	=1
*>Letter>B	*>Letter>B	*>Letter>B	*>Letter>B	*>Letter>B	*>Letter>B	*>Letter>B	*>Letter>B
*>Label>Intro	*>Label>Intro	*>Label>Intro	*>Label>Intro	*>Label>Intro	*>Label>Intro	*>Label>Intro	*>Label>Intro
1r	.	1Em	newline	organ	.	14.499	E:min
=2	=2	=2	=2	=2	=2	=2	=2
1r	.	1Em	.	organ	.	16.78	E:min
=3	=3	=3	=3	=3	=3	=3	=3
1r	.	1Em	.	organ	.	19.06	E:min
=4	=4	=4	=4	=4	=4	=4	=4
1r	.	1Em	.	organ	.	21.34	E:min
=5	=5	=5	=5	=5	=5	=5	=5
1r	.	1Em	.	organ	.	23.62	E:min
=6	=6	=6	=6	=6	=6	=6	=6
1r	.	1Em	.	organ	.	25.901	E:min
=7	=7	=7	=7	=7	=7	=7	=7
1r	.	1Em	.	organ	.	28.181	E:min
=8	=8	=8	=8	=8	=8	=8	=8
1r	.	1Em	.	organ	.	30.461	E:min
=9	=9	=9	=9	=9	=9	=9	=9
1r	.	1Em	newline	organ	.	32.741	E:min
=10	=10	=10	=10	=10	=10	=10	=10
1r	.	2.Em	.	organ	.	35.025	E:min
.	.	4DM	.	organ	.	36.738	D:maj/2
=11	=11	=11	=11	=11	=11	=11	=11
1r	.	2.Em	.	organ	.	37.308	E:min
.	.	4DM	.	organ	.	39.021	D:maj/2
=12	=12	=12	=12	=12	=12	=12	=12
1r	.	2.Em	.	organ	.	39.592	E:min
.	.	4DM	.	organ	.	41.305	D:maj/2
=13	=13	=13	=13	=13	=13	=13	=13
1r	.	2.Em	.	organ	.	41.876	E:min
.	.	4DM	.	organ	.	43.588	D:maj/2
=14	=14	=14	=14	=14	=14	=14	=14
*>Letter>A	*>Letter>A	*>Letter>A	*>Letter>A	*>Letter>A	*>Letter>A	*>Letter>A	*>Letter>A
*>Label>Chorus	*>Label>Chorus	*>Label>Chorus	*>Label>Chorus	*>Label>Chorus	*>Label>Chorus	*>Label>Chorus	*>Label>Chorus
8E	Rid-	2.Em	newline	voice	.	44.159	E:min
8E	-ers	.	.	.	.	.	.
8G	on	.	.	.	.	.	.
8D	the	.	.	.	.	.	.
2E	storm	.	.	.	A	.	.
.	.	4DM	.	voice	.	45.903	D:maj/2
=15	=15	=15	=15	=15	=15	=15	=15
1r	.	2.Em	.	voice	.	46.484	E:min
.	.	4DM	.	voice	.	48.228	D:maj/2
=16	=16	=16	=16	=16	=16	=16	=16
8E	Rid-	2.Em	.	voice	.	48.809	E:min
8E	-ers	.	.	.	.	.	.
8G	on	.	.	.	.	.	.
8D	the	.	.	.	.	.	.
2E	storm	.	.	.	A	.	.
.	.	4DM	.	voice	.	50.553	D:maj/2
=17	=17	=17	=17	=17	=17	=17	=17
2r	.	1Em	.	voice	.	51.134	E:min
4r	.	.	.	.	.	.	.
8r	.	.	.	.	.	.	.
8E	In-	.	.	.	.	.	.
=18	=18	=18	=18	=18	=18	=18	=18
8A	-to	2Am	newline	voice	.	53.459	A:min
8A	this	.	.	.	.	.	.
8A	house	.	.	.	.	.	.
8G	we're	.	.	.	.	.	.
2A	born	2Bm	.	voice	A	54.631	B:min/b7
=19	=19	=19	=19	=19	=19	=19	=19
2r	.	2CM	.	voice	.	55.802	C:maj/6
4r	.	2DM	.	voice	.	56.973	D:maj/5
8r	.	.	.	.	.	.	.
8D	In-	.	.	.	.	.	.
=20	=20	=20	=20	=20	=20	=20	=20
8E	-to	2.Em	newline	voice	.	58.145	E:min
8E	this	.	.	.	.	.	.
8G	world	.	.	.	.	.	.
8G	we're	.	.	.	.	.	.
2E	thrown	.	.	.	B	.	.
.	.	4DM	.	voice	.	59.883	D:maj/2
=21	=21	=21	=21	=21	=21	=21	=21
2.r	.	2.Em	.	voice	.	60.463	E:min
8E	Like	4DM	.	voice	.	62.201	D:maj/2
8E	a	.	.	.	.	.	.
=22	=22	=22	=22	=22	=22	=22	=22
8A	dog	4GMM	newline	voice	.	62.781	G:maj7/5
8A	with-	.	.	.	.	.	.
8A	-out	2.DM	.	voice	.	63.377	D:maj
8G	a	.	.	.	.	.	.
4A	bone	.	.	.	B	.	.
4A	an	.	.	.	.	.	.
=23	=23	=23	=23	=23	=23	=23	=23
8G	ac-	4DM	.	voice	.	65.166	D:maj
8G	-tor	.	.	.	.	.	.
8G	out	2.CM	.	voice	.	65.762	C:maj
8E	on	.	.	.	.	.	.
4E	loan	.	.	.	B	.	.
4r	.	.	.	.	.	.	.
=24	=24	=24	=24	=24	=24	=24	=24
8E	Rid-	2Em	newline	voice	.	67.551	E:min
8E	-ers	.	.	.	.	.	.
8G	on	.	.	.	.	.	.
8G	the	.	.	.	.	.	.
2E	storm	2F#m	.	voice	A	68.732	F#:min/b7
=25	=25	=25	=25	=25	=25	=25	=25
2r	.	2GM	.	voice	.	69.912	G:maj/6
4r	.	2F#m	.	voice	.	71.093	F#:min/b7
8E	There's	.	.	.	.	.	.
8D	a	.	.	.	.	.	.
=26	=26	=26	=26	=26	=26	=26	=26
*>Letter>A	*>Letter>A	*>Letter>A	*>Letter>A	*>Letter>A	*>Letter>A	*>Letter>A	*>Letter>A
*>Label>Verse	*>Label>Verse	*>Label>Verse	*>Label>Verse	*>Label>Verse	*>Label>Verse	*>Label>Verse	*>Label>Verse
8E	kill-	2Em	newline	voice	.	72.273	E:min
8E	-er	.	.	.	.	.	.
8G	on	.	.	.	.	.	.
8G	the	.	.	.	.	.	.
2E	road	2F#m	.	voice	B	73.474	F#:min/b7
=27	=27	=27	=27	=27	=27	=27	=27
2r	.	2GM	.	voice	.	74.676	G:maj/6
8r	.	2F#m	.	voice	.	75.877	F#:min/b7
8E	His	.	.	.	.	.	.
8E	brain	.	.	.	.	.	.
8D	is	.	.	.	.	.	.
=28	=28	=28	=28	=28	=28	=28	=28
8E	squirm-	.	.	.	.	.	.
8E	-in'	2Em	newline	voice	.	77.079	E:min
8G	like	.	.	.	.	.	.
8G	a	.	.	.	.	.	.
2E	toad	2F#m	.	voice	B	78.219	F#:min/b7
=29	=29	=29	=29	=29	=29	=29	=29
2r	.	2GM	.	voice	.	79.36	G:maj/6
4.r	.	2F#m	.	voice	.	80.5	F#:min/b7
8E	Take	.	.	.	.	.	.
=30	=30	=30	=30	=30	=30	=30	=30
8A	a	2Am	newline	voice	.	81.641	A:min
8A	long	.	.	.	.	.	.
8A	ho-	.	.	.	.	.	.
8G	-li-	.	.	.	.	.	.
2A	-day	2Bm	.	voice	C	82.832	B:min/b7
=31	=31	=31	=31	=31	=31	=31	=31
1r	.	2CM	.	voice	.	84.023	C:maj/6
.	.	2DM	.	voice	.	85.214	D:maj/5
=32	=32	=32	=32	=32	=32	=32	=32
8E	Let	2Em	newline	voice	.	86.405	E:min
8E	your	.	.	.	.	.	.
8G	chil-	.	.	.	.	.	.
8G	-dren	.	.	.	.	.	.
4E	play	2DM	.	voice	C	87.601	D:maj/2
4r	.	.	.	.	.	.	.
=33	=33	=33	=33	=33	=33	=33	=33
2r	.	2Em	.	voice	.	88.798	E:min
4r	.	2DM	.	voice	.	89.994	D:maj/2
8E	If	.	.	.	.	.	.
8E	ya	.	.	.	.	.	.
=34	=34	=34	=34	=34	=34	=34	=34
8A	give	4GMM	newline	voice	.	91.19	G:maj7/5
8A	this	.	.	.	.	.	.
8A	man	2.DM	.	voice	.	91.786	D:maj
8G	a	.	.	.	.	.	.
4A	ride	.	.	.	D	.	.
8A	Sweet	.	.	.	.	.	.
8r	.	.	.	.	.	.	.
=35	=35	=35	=35	=35	=35	=35	=35
8G	fa-	4DM	.	voice	.	93.574	D:maj
8G	-mi-	.	.	.	.	.	.
8G	-ly	2.CM	.	voice	.	94.169	C:maj
8E	will	.	.	.	.	.	.
4E	die	.	.	.	D	.	.
4r	.	.	.	.	.	.	.
=36	=36	=36	=36	=36	=36	=36	=36
8E	Kill-	2Em	.	voice	.	95.957	E:min
8E	-er	.	.	.	.	.	.
8G	on	.	.	.	.	.	.
8G	the	.	.	.	.	.	.
2E	road	2DM	.	voice	B	97.149	D:maj/2
=37	=37	=37	=37	=37	=37	=37	=37
4r	.	2Em	.	voice	.	98.34	E:min
2.B	Yeah	.	.	.	.	.	.
.	.	2DM	.	voice	.	99.532	D:maj/2
=38	=38	=38	=38	=38	=38	=38	=38
*>Letter>A	*>Letter>A	*>Letter>A	*>Letter>A	*>Letter>A	*>Letter>A	*>Letter>A	*>Letter>A
*>Label>Solo	*>Label>Solo	*>Label>Solo	*>Label>Solo	*>Label>Solo	*>Label>Solo	*>Label>Solo	*>Label>Solo
1r	.	1Em	newline	organ	.	100.724	E:min
=39	=39	=39	=39	=39	=39	=39	=39
1r	.	1Em	.	organ	.	103.038	E:min
=40	=40	=40	=40	=40	=40	=40	=40
1r	.	1Em	.	organ	.	105.353	E:min
=41	=41	=41	=41	=41	=41	=41	=41
1r	.	1Em	.	organ	.	107.667	E:min
=42	=42	=42	=42	=42	=42	=42	=42
1r	.	2Am	newline	organ	.	109.981	A:min
.	.	2Bm	.	organ	.	111.15	B:min/b7
=43	=43	=43	=43	=43	=43	=43	=43
1r	.	2CM	.	organ	.	112.319	C:maj/6
.	.	2DM	.	organ	.	113.488	D:maj/5
=44	=44	=44	=44	=44	=44	=44	=44
1r	.	2.Em	newline	organ	.	114.657	E:min
.	.	4DM	.	organ	.	116.415	D:maj/2
=45	=45	=45	=45	=45	=45	=45	=45
1r	.	2.Em	.	organ	.	117.001	E:min
.	.	4DM	.	organ	.	118.759	D:maj/2
=46	=46	=46	=46	=46	=46	=46	=46
1r	.	4GMM	newline	organ	.	119.345	G:maj7/5
.	.	2.DM	.	organ	.	119.928	D:maj
=47	=47	=47	=47	=47	=47	=47	=47
1r	.	4DM	.	organ	.	121.678	D:maj
.	.	2.CM	.	organ	.	122.261	C:maj
=48	=48	=48	=48	=48	=48	=48	=48
1r	.	2Em	newline	organ	.	124.011	E:min
.	.	2F#m	.	organ	.	125.188	F#:min/b7
=49	=49	=49	=49	=49	=49	=49	=49
1r	.	2GM	.	organ	.	126.365	G:maj/6
.	.	2F#m	.	organ	.	127.543	F#:min/b7
=50	=50	=50	=50	=50	=50	=50	=50
1r	.	2Em	newline	organ	.	128.72	E:min
.	.	2F#m	.	organ	.	129.912	F#:min/b7
=51	=51	=51	=51	=51	=51	=51	=51
2r	.	2GM	.	organ	.	131.105	G:maj/6
4r	.	2F#m	.	organ	.	132.298	F#:min/b7
8E	Girl	.	.	.	.	.	.
8D	you	.	.	.	.	.	.
=52	=52	=52	=52	=52	=52	=52	=52
*>Letter>A	*>Letter>A	*>Letter>A	*>Letter>A	*>Letter>A	*>Letter>A	*>Letter>A	*>Letter>A
*>Label>Verse	*>Label>Verse	*>Label>Verse	*>Label>Verse	*>Label>Verse	*>Label>Verse	*>Label>Verse	*>Label>Verse
8E	got-	2Em	newline	voice	.	133.49	E:min
8E	-ta	.	.	.	.	.	.
8G	love	.	.	.	.	.	.
8G	your	.	.	.	.	.	.
4E	man	2F#m	.	voice	E	134.663	F#:min/b7
4r	.	.	.	.	.	.	.
=53	=53	=53	=53	=53	=53	=53	=53
2r	.	2GM	.	voice	.	135.836	G:maj/6
4r	.	2F#m	.	voice	.	137.008	F#:min/b7
8E	Girl	.	.	.	.	.	.
8D	you	.	.	.	.	.	.
=54	=54	=54	=54	=54	=54	=54	=54
8E	got-	2Em	newline	voice	.	138.181	E:min
8E	-ta	.	.	.	.	.	.
8G	love	.	.	.	.	.	.
8G	your	.	.	.	.	.	.
4E	man	2F#m	.	voice	E	139.383	F#:min/b7
4r	.	.	.	.	.	.	.
=55	=55	=55	=55	=55	=55	=55	=55
1r	.	2GM	.	voice	.	140.585	G:maj/6
.	.	2F#m	.	voice	.	141.787	F#:min/b7
=56	=56	=56	=56	=56	=56	=56	=56
8A	Take	2Am	newline	voice	.	142.988	A:min
8A	him	.	.	.	.	.	.
8A	by	.	.	.	.	.	.
8G	the	.	.	.	.	.	.
2A	hand	2Bm	.	voice	E	144.187	B:min/b7
=57	=57	=57	=57	=57	=57	=57	=57
1r	.	2CM	.	voice	.	145.385	C:maj/6
.	.	2DM	.	voice	.	146.583	D:maj/5
=58	=58	=58	=58	=58	=58	=58	=58
8E	Make	2Em	newline	voice	.	147.781	E:min
8E	him	.	.	.	.	.	.
8G	un-	.	.	.	.	.	.
8G	-der-	.	.	.	.	.	.
2E	-stand	2F#m	.	voice	E	148.974	F#:min/b7
=59	=59	=59	=59	=59	=59	=59	=59
2r	.	2GM	.	voice	.	150.167	G:maj/6
4.r	.	2F#m	.	voice	.	151.36	F#:min/b7
8E	The	.	.	.	.	.	.
=60	=60	=60	=60	=60	=60	=60	=60
8A	world	4GMM	newline	voice	.	152.553	G:maj7/5
8A	on	.	.	.	.	.	.
8A	you	2.DM	.	voice	.	153.14	D:maj
8G	de-	.	.	.	.	.	.
4A	-pends	.	.	.	F	.	.
4A	Our	.	.	.	.	.	.
=61	=61	=61	=61	=61	=61	=61	=61
8G	life	4DM	.	voice	.	154.9	D:maj
8G	will	.	.	.	.	.	.
8G	ne-	2.CM	.	voice	.	155.486	C:maj
8E	-ver	.	.	.	.	.	.
4E	end	.	.	.	F	.	.
4r	.	.	.	.	.	.	.
=62	=62	=62	=62	=62	=62	=62	=62
8E	Got-	2Em	newline	voice	.	157.246	E:min
8E	-ta	.	.	.	.	.	.
8G	love	.	.	.	.	.	.
8G	your	.	.	.	.	.	.
2E	man	2F#m	.	voice	E	158.408	F#:min/b7
=63	=63	=63	=63	=63	=63	=63	=63
4r	.	2GM	.	voice	.	159.569	G:maj/6
2B	Yeah	.	.	.	.	.	.
.	.	2F#m	.	voice	.	160.731	F#:min/b7
4r	.	.	.	.	.	.	.
=64	=64	=64	=64	=64	=64	=64	=64
*>Letter>B	*>Letter>B	*>Letter>B	*>Letter>B	*>Letter>B	*>Letter>B	*>Letter>B	*>Letter>B
*>Label>Solo	*>Label>Solo	*>Label>Solo	*>Label>Solo	*>Label>Solo	*>Label>Solo	*>Label>Solo	*>Label>Solo
1r	.	1Em	newline	organ	.	161.893	E:min
=65	=65	=65	=65	=65	=65	=65	=65
1r	.	1Em	.	organ	.	164.135	E:min
=66	=66	=66	=66	=66	=66	=66	=66
1r	.	1Em	.	organ	.	166.378	E:min
=67	=67	=67	=67	=67	=67	=67	=67
1r	.	1Em	.	organ	.	168.621	E:min
=68	=68	=68	=68	=68	=68	=68	=68
1r	.	1Em	.	organ	.	170.864	E:min
=69	=69	=69	=69	=69	=69	=69	=69
1r	.	1Em	.	organ	.	173.107	E:min
=70	=70	=70	=70	=70	=70	=70	=70
1r	.	1Em	.	organ	.	175.35	E:min
=71	=71	=71	=71	=71	=71	=71	=71
1r	.	1Em	.	organ	.	177.593	E:min
=72	=72	=72	=72	=72	=72	=72	=72
1r	.	1Em	.	organ	.	179.836	E:min
=73	=73	=73	=73	=73	=73	=73	=73
1r	.	1Em	.	organ	.	182.079	E:min
=74	=74	=74	=74	=74	=74	=74	=74
1r	.	1Em	.	organ	.	184.322	E:min
=75	=75	=75	=75	=75	=75	=75	=75
1r	.	1Em	.	organ	.	186.565	E:min
=76	=76	=76	=76	=76	=76	=76	=76
1r	.	1Em	.	organ	.	188.808	E:min
=77	=77	=77	=77	=77	=77	=77	=77
1r	.	1Em	.	organ	.	191.051	E:min
=78	=78	=78	=78	=78	=78	=78	=78
1r	.	1Em	.	organ	.	193.294	E:min
=79	=79	=79	=79	=79	=79	=79	=79
1r	.	1Em	.	organ	.	195.537	E:min
=80	=80	=80	=80	=80	=80	=80	=80
1r	.	1Em	.	organ	.	197.78	E:min
=81	=81	=81	=81	=81	=81	=81	=81
1r	.	1Em	.	organ	.	200.023	E:min
=82	=82	=82	=82	=82	=82	=82	=82
1r	.	1Em	.	organ	.	202.266	E:min
=83	=83	=83	=83	=83	=83	=83	=83
1r	.	1Em	.	organ	.	204.509	E:min
=84	=84	=84	=84	=84	=84	=84	=84
1r	.	1Em	.	organ	.	206.752	E:min
=85	=85	=85	=85	=85	=85	=85	=85
1r	.	1Em	.	organ	.	208.994	E:min
=86	=86	=86	=86	=86	=86	=86	=86
1r	.	1Em	.	organ	.	211.237	E:min
=87	=87	=87	=87	=87	=87	=87	=87
1r	.	1Em	.	organ	.	213.48	E:min
=88	=88	=88	=88	=88	=88	=88	=88
1r	.	1Em	.	organ	.	215.723	E:min
=89	=89	=89	=89	=89	=89	=89	=89
1r	.	1Em	.	organ	.	217.966	E:min
=90	=90	=90	=90	=90	=90	=90	=90
1r	.	1Em	.	organ	.	220.209	E:min
=91	=91	=91	=91	=91	=91	=91	=91
1r	.	1Em	.	organ	.	222.452	E:min
=92	=92	=92	=92	=92	=92	=92	=92
1r	.	1Em	.	organ	.	224.695	E:min
=93	=93	=93	=93	=93	=93	=93	=93
1r	.	1Em	.	organ	.	226.938	E:min
=94	=94	=94	=94	=94	=94	=94	=94
1r	.	1Em	.	organ	.	229.181	E:min
=95	=95	=95	=95	=95	=95	=95	=95
1r	.	1Em	.	organ	.	231.424	E:min
=96	=96	=96	=96	=96	=96	=96	=96
1r	.	1Em	.	organ	.	233.667	E:min
=97	=97	=97	=97	=97	=97	=97	=97
1r	.	1Em	.	organ	.	235.91	E:min
=98	=98	=98	=98	=98	=98	=98	=98
1r	.	1Em	.	organ	.	238.153	E:min
=99	=99	=99	=99	=99	=99	=99	=99
1r	.	1Em	.	organ	.	240.396	E:min
=100	=100	=100	=100	=100	=100	=100	=100
1r	.	1Em	.	organ	.	242.639	E:min
=101	=101	=101	=101	=101	=101	=101	=101
1r	.	1Em	.	organ	.	244.882	E:min
=102	=102	=102	=102	=102	=102	=102	=102
1r	.	1Em	.	organ	.	247.125	E:min
=103	=103	=103	=103	=103	=103	=103	=103
1r	.	1Em	.	organ	.	249.368	E:min
=104	=104	=104	=104	=104	=104	=104	=104
1r	.	1Em	.	organ	.	251.611	E:min
=105	=105	=105	=105	=105	=105	=105	=105
1r	.	1Em	.	organ	.	253.853	E:min
=106	=106	=106	=106	=106	=106	=106	=106
1r	.	1Em	.	organ	.	256.096	E:min
=107	=107	=107	=107	=107	=107	=107	=107
1r	.	1Em	.	organ	.	258.339	E:min
=108	=108	=108	=108	=108	=108	=108	=108
1r	.	1Em	.	organ	.	260.582	E:min
=109	=109	=109	=109	=109	=109	=109	=109
1r	.	1Em	.	organ	.	262.825	E:min
=110	=110	=110	=110	=110	=110	=110	=110
1r	.	1Em	.	organ	.	265.068	E:min
=111	=111	=111	=111	=111	=111	=111	=111
1r	.	1Em	.	organ	.	267.311	E:min
=112	=112	=112	=112	=112	=112	=112	=112
1r	.	2.Em	newline	keyboard	.	269.554	E:min
.	.	4DM	.	keyboard	.	271.376	D:maj/2
=113	=113	=113	=113	=113	=113	=113	=113
1r	.	2.Em	.	keyboard	.	271.983	E:min
.	.	4DM	.	keyboard	.	273.805	D:maj/2
=114	=114	=114	=114	=114	=114	=114	=114
1r	.	2.Em	.	keyboard	.	274.412	E:min
.	.	4DM	.	keyboard	.	276.234	D:maj/2
=115	=115	=115	=115	=115	=115	=115	=115
1r	.	1Em	.	keyboard	.	276.842	E:min
r;	.	1r;	.	r	.	279.271	N.C.
r;	.	1r;	.	r	.	280.408	N.C.
=116	=116	=116	=116	=116	=116	=116	=116
*>Letter>A	*>Letter>A	*>Letter>A	*>Letter>A	*>Letter>A	*>Letter>A	*>Letter>A	*>Letter>A
*>Label>Interlude	*>Label>Interlude	*>Label>Interlude	*>Label>Interlude	*>Label>Interlude	*>Label>Interlude	*>Label>Interlude	*>Label>Interlude
1r	.	2Em	newline	.	.	281.546	E:min
.	.	2F#m	.	.	.	282.735	F#:min/b7
=117	=117	=117	=117	=117	=117	=117	=117
1r	.	2GM	.	.	.	283.925	G:maj/6
.	.	2F#m	.	.	.	285.115	F#:min/b7
=118	=118	=118	=118	=118	=118	=118	=118
1r	.	2Em	.	.	.	286.304	E:min
.	.	2F#m	.	.	.	287.494	F#:min/b7
=119	=119	=119	=119	=119	=119	=119	=119
1r	.	2GM	.	.	.	288.684	G:maj/6
.	.	2F#m	.	.	.	289.874	F#:min/b7
=120	=120	=120	=120	=120	=120	=120	=120
1r	.	2Em	.	.	.	291.063	E:min
.	.	2F#m	.	.	.	292.253	F#:min/b7
=121	=121	=121	=121	=121	=121	=121	=121
1r	.	2GM	.	.	.	293.443	G:maj/6
.	.	2F#m	.	.	.	294.632	F#:min/b7
=122	=122	=122	=122	=122	=122	=122	=122
1r	.	2Em	.	.	.	295.822	E:min
.	.	2F#m	.	.	.	297.012	F#:min/b7
=123	=123	=123	=123	=123	=123	=123	=123
1r	.	2GM	.	.	.	298.202	G:maj/6
.	.	2F#m	.	.	.	299.391	F#:min/b7
=124	=124	=124	=124	=124	=124	=124	=124
*>Letter>A	*>Letter>A	*>Letter>A	*>Letter>A	*>Letter>A	*>Letter>A	*>Letter>A	*>Letter>A
*>Label>Chorus	*>Label>Chorus	*>Label>Chorus	*>Label>Chorus	*>Label>Chorus	*>Label>Chorus	*>Label>Chorus	*>Label>Chorus
8E	Rid-	2Em	newline	voice	.	300.581	E:min
8E	-ers	.	.	.	.	.	.
8G	on	.	.	.	.	.	.
8G	the	.	.	.	.	.	.
2E	storm	2F#m	.	voice	A	301.769	F#:min/b7
=125	=125	=125	=125	=125	=125	=125	=125
1r	.	2GM	.	voice	.	302.956	G:maj/6
.	.	2F#m	.	voice	.	304.144	F#:min/b7
=126	=126	=126	=126	=126	=126	=126	=126
8E	Rid-	2Em	.	voice	.	305.331	E:min
8E	-ers	.	.	.	.	.	.
8G	on	.	.	.	.	.	.
8G	the	.	.	.	.	.	.
4E	storm	2F#m	.	voice	A	306.519	F#:min/b7
4r	.	.	.	.	.	.	.
=127	=127	=127	=127	=127	=127	=127	=127
2r	.	2GM	.	voice	.	307.707	G:maj/6
4r	.	2F#m	.	voice	.	308.894	F#:min/b7
8r	.	.	.	.	.	.	.
8E	In-	.	.	.	.	.	.
=128	=128	=128	=128	=128	=128	=128	=128
8A	-to	2Am	newline	voice	.	310.082	A:min
8A	this	.	.	.	.	.	.
8A	house	.	.	.	.	.	.
8G	we're	.	.	.	.	.	.
2A	born	2Bm	.	voice	A	311.286	B:min/b7
=129	=129	=129	=129	=129	=129	=129	=129
2r	.	2CM	.	voice	.	312.49	C:maj/6
4r	.	2DM	.	voice	.	313.694	D:maj/5
8r	.	.	.	.	.	.	.
8D	In-	.	.	.	.	.	.
=130	=130	=130	=130	=130	=130	=130	=130
8E	-to	2Em	newline	voice	.	314.898	E:min
8E	this	.	.	.	.	.	.
8G	world	.	.	.	.	.	.
8G	we're	.	.	.	.	.	.
2E	thrown	2F#m	.	voice	B	316.054	F#:min/b7
=131	=131	=131	=131	=131	=131	=131	=131
2.r	.	2GM	.	voice	.	317.21	G:maj/6
.	.	2F#m	.	voice	.	318.366	F#:min/b7
8E	Like	.	.	.	.	.	.
8E	a	.	.	.	.	.	.
=132	=132	=132	=132	=132	=132	=132	=132
8A	dog	4GMM	newline	voice	.	319.522	G:maj7/5
8A	with-	.	.	.	.	.	.
8A	-out	2.DM	.	voice	.	320.125	D:maj
8G	a	.	.	.	.	.	.
4A	bone	.	.	.	B	.	.
4A	an	.	.	.	.	.	.
=133	=133	=133	=133	=133	=133	=133	=133
8G	ac-	4DM	.	voice	.	321.934	D:maj
8G	-tor	.	.	.	.	.	.
8G	out	2.CM	.	voice	.	322.537	C:maj
8E	on	.	.	.	.	.	.
4E	loan	.	.	.	B	.	.
4r	.	.	.	.	.	.	.
=134	=134	=134	=134	=134	=134	=134	=134
8E	Rid-	2Em	newline	voice	.	324.347	E:min
8E	-ers	.	.	.	.	.	.
8G	on	.	.	.	.	.	.
8G	the	.	.	.	.	.	.
2E	storm	2F#m	.	voice	A	325.551	F#:min/b7
=135	=135	=135	=135	=135	=135	=135	=135
1r	.	2GM	.	voice	.	326.755	G:maj/6
.	.	2F#m	.	voice	.	327.96	F#:min/b7
=136	=136	=136	=136	=136	=136	=136	=136
*>Letter>B	*>Letter>B	*>Letter>B	*>Letter>B	*>Letter>B	*>Letter>B	*>Letter>B	*>Letter>B
*>Label>Outro	*>Label>Outro	*>Label>Outro	*>Label>Outro	*>Label>Outro	*>Label>Outro	*>Label>Outro	*>Label>Outro
1r	.	1Em	newline	organ	.	329.164	E:min
=137	=137	=137	=137	=137	=137	=137	=137
1r	.	1Em	.	organ	.	331.48	E:min
=138	=138	=138	=138	=138	=138	=138	=138
1r	.	1Em	.	organ	.	333.797	E:min
=139	=139	=139	=139	=139	=139	=139	=139
1r	.	1Em	.	organ	.	336.113	E:min
=140	=140	=140	=140	=140	=140	=140	=140
1r	.	1Em	.	organ	.	338.429	E:min
=141	=141	=141	=141	=141	=141	=141	=141
1r	.	1Em	.	organ	.	340.745	E:min
=142	=142	=142	=142	=142	=142	=142	=142
1r	.	1Em	.	organ	.	343.061	E:min
=143	=143	=143	=143	=143	=143	=143	=143
1r	.	1Em	.	organ	.	345.377	E:min
=144	=144	=144	=144	=144	=144	=144	=144
4B	Rid-	1Em	newline	voice	.	347.694	E:min
4B	-ers	.	.	.	.	.	.
4A	on	.	.	.	.	.	.
8G	the	.	.	.	.	.	.
[8B	storm	.	.	.	A	.	.
=145	=145	=145	=145	=145	=145	=145	=145
2B]	_	1Em	.	voice	.	350.002	E:min
2r	.	.	.	.	.	.	.
=146	=146	=146	=146	=146	=146	=146	=146
4B	Rid-	1Em	.	voice	.	352.311	E:min
4B	-ers	.	.	.	.	.	.
4A	on	.	.	.	.	.	.
8G	the	.	.	.	.	.	.
[8B	storm	.	.	.	A	.	.
=147	=147	=147	=147	=147	=147	=147	=147
2B]	_	1Em	.	voice	.	354.619	E:min
2r	.	.	.	.	.	.	.
=148	=148	=148	=148	=148	=148	=148	=148
4B	Rid-	1Em	.	voice	.	356.928	E:min
4B	-ers	.	.	.	.	.	.
4A	on	.	.	.	.	.	.
8G	the	.	.	.	.	.	.
[8B	storm	.	.	.	A	.	.
=149	=149	=149	=149	=149	=149	=149	=149
4B]	_	1Em	.	voice	.	359.236	E:min
4r	.	.	.	.	.	.	.
2r	.	.	.	.	.	.	.
=150	=150	=150	=150	=150	=150	=150	=150
4B	Rid-	1Em	.	voice	.	361.545	E:min
4B	-ers	.	.	.	.	.	.
4A	on	.	.	.	.	.	.
8G	the	.	.	.	.	.	.
[8B	storm	.	.	.	A	.	.
=151	=151	=151	=151	=151	=151	=151	=151
4B]	_	1Em	.	voice	.	363.853	E:min
4r	.	.	.	.	.	.	.
2r	.	.	.	.	.	.	.
=152	=152	=152	=152	=152	=152	=152	=152
1r	.	1Em	newline	organ	.	366.162	E:min
=153	=153	=153	=153	=153	=153	=153	=153
1r	.	1Em	.	organ	.	368.494	E:min
=154	=154	=154	=154	=154	=154	=154	=154
1r	.	1Em	.	organ	.	370.827	E:min
=155	=155	=155	=155	=155	=155	=155	=155
1r	.	1Em	.	organ	.	373.159	E:min
=156	=156	=156	=156	=156	=156	=156	=156
1r	.	1Em	newline	fadeout	.	375.491	E:min
=157	=157	=157	=157	=157	=157	=157	=157
1r	.	1Em	.	fadeout	.	377.741	E:min
=158	=158	=158	=158	=158	=158	=158	=158
1r	.	1Em	.	fadeout	.	379.991	E:min
=159	=159	=159	=159	=159	=159	=159	=159
1r	.	1Em	.	fadeout	.	382.241	E:min
=160	=160	=160	=160	=160	=160	=160	=160
1r	.	1Em	newline	fadeout	.	384.49	E:min
=161	=161	=161	=161	=161	=161	=161	=161
1r	.	1Em	.	fadeout	.	385.682	E:min
=162	=162	=162	=162	=162	=162	=162	=162
1r	.	1Em	.	fadeout	.	386.874	E:min
=163	=163	=163	=163	=163	=163	=163	=163
1r	.	1Em	.	fadeout	.	388.065	E:min
=164	=164	=164	=164	=164	=164	=164	=164
1r	.	1Em	newline	organ	.	389.257	E:min
=165	=165	=165	=165	=165	=165	=165	=165
1r	.	1Em	.	organ	.	391.197	E:min
=166	=166	=166	=166	=166	=166	=166	=166
1r	.	1Em	.	organ	.	393.137	E:min
=167	=167	=167	=167	=167	=167	=167	=167
1r	.	1Em	.	organ	.	395.077	E:min
=168	=168	=168	=168	=168	=168	=168	=168
1r	.	1Em	.	organ	.	397.017	E:min
=169	=169	=169	=169	=169	=169	=169	=169
1r	.	1Em	.	organ	.	398.957	E:min
=170	=170	=170	=170	=170	=170	=170	=170
1r	.	1Em	.	organ	.	400.897	E:min
=171	=171	=171	=171	=171	=171	=171	=171
1r	.	1Em	.	organ	.	402.837	E:min
r;	.	1r;	.	r	.	404.777	N.C.
r;	.	1r;	.	r	.	428.38	N.C.
r;	.	1r;	.	r	.	430.681	N.C.
*-	*-	*-	*-	*-	*-	*-	*-
!!!BillboardChartDate: 1971/07/24
!!!BillboardPeak: 14
!!!BillboardWeeksOnChart: 12
!!!COC: The Doors
!!!ENC: Nathaniel Condit-Schultz
!!!EST: Awating manual error checking and editing.
!!!OTL: Riders On The Storm
!!!RDF**chordsym: original McGill chord annotation + (implied pitch class set, with bass pitch in first position)
!!!RDF**harmony: **recip + pitch class of root + harmonic quality
!!!RDF**leadinstrument: original McGill primary instrumentation annotation
!!!RDF**phrase: newline = linebreak in original McGill transcription
!!!RDF**timestamp: McGill audio timestamp in seconds
!!!RDT: 2017/01/12/
!!!SampleActualRank: 39
!!!SampleID#: 0945
!!!SampleTargetRank: 41
